svgs/light/cow.svg

<svg xmlns="http://www.w3.org/2000/svg" viewBox="0 0 640 512"><!-- Font Awesome Pro 6.0.0-alpha2 by @fontawesome - https://fontawesome.com License - https://fontawesome.com/license (Commercial License) --><path d="M633.999 279.625L624 265.5V210.625C624 191.25 608.25 175.5 588.875 175.5C579.875 175.5 574.625 178.375 565.25 183.125L508.75 103.625C490.625 78.75 461.75 64 431 64H112C67.875 64 32 99.875 32 144V232.875C13 244 0 264.375 0 288V320C35.375 320 64 291.375 64 256V144C64 120.125 81.625 100.375 104.5 96.75C99.25 106 96 116.625 96 128V416C96 433.625 110.375 448 128 448H176C193.625 448 208 433.625 208 416V364.375C215.25 367.375 223.625 369.375 232 371.25V392C232 400.875 239.25 408 248 408C256.875 408 264 400.875 264 392V375.25C266.75 375.375 269.25 376 272 376S277.25 375.375 280 375.25V392C280 400.875 287.25 408 296 408C304.875 408 312 400.875 312 392V371.25C320.375 369.375 328.75 367.375 336 364.375V416C336 433.625 350.375 448 368 448H416C433.625 448 448 433.625 448 416V272L480 288V330C480 342.25 483.5 354.375 490.25 364.75L525.625 419.625C537.125 437.25 556.75 448 577.75 448H577.875C612.25 448 640 420.25 640 385.875V298.25C640 291.625 637.875 285.125 633.999 279.625ZM212.75 96H331.25C348.75 96 358.375 115.75 347.125 128.75C307 175.25 289.25 176 272 176H271C253.75 176 237.125 175.625 196.875 128.75C185.625 115.75 195.25 96 212.75 96ZM208.625 330.25C211.625 297.625 238.75 272 272 272S332.375 297.625 335.375 330.25C321.25 335.875 277.999 357.875 208.625 330.25ZM608 385.875C608 402.5 594.5 416 577.75 416C567.5 416 558.125 410.875 552.5 402.25L517.125 347.375C513.779 342.185 512 336.141 512 329.966V278.139C512 272.078 508.576 266.538 503.155 263.828L439.155 231.828C428.517 226.508 416 234.244 416 246.139V416H368V336C368 305.125 342.5 240 272 240C201.125 240 176 304.5 176 336V416H128V128C128 110.375 142.375 96 160 96H164.25C156.625 114.125 159.625 134.625 172.625 149.75C214.875 198.75 239.75 208 271 208C303.875 208 329.125 198.75 371.375 149.75C384.375 134.625 387.375 114.125 379.75 96H431C451.375 96 470.75 105.875 482.625 122.25L561.25 232.625C565.75 215.5 580.25 208 584 208C588.25 208 592 211.375 592 216.125V275.75L608 298.25V385.875ZM568 304C559.125 304 552 311.125 552 320S559.125 336 568 336S584 328.875 584 320S576.875 304 568 304Z"/></svg>

<svg xmlns="http://www.w3.org/2000/svg" viewBox="0 0 640 512"><!--! Font Awesome Pro 6.3.0 by @fontawesome - https://fontawesome.com License - https://fontawesome.com/license (Commercial License) Copyright 2023 Fonticons, Inc. --><path d="M633.1 279.6L624 265.5V210.6c0-19.38-15.75-35.12-35.13-35.12c-9 0-14.25 2.875-23.62 7.625l-56.5-79.42C490.6 78.83 461.8 64 431 64H112C67.88 64 32 99.88 32 144v88.88C13 244 0 264.4 0 288v32c35.38 0 64-28.62 64-64V144c0-23.88 17.62-43.62 40.5-47.25C99.25 106 96 116.6 96 128L96 416c0 17.62 14.38 32 32 32h48C193.6 448 208 433.6 208 416v-51.63c7.25 3 15.62 5 24 6.875L232.1 392c0 8.875 7.25 16 16 16c8.875 0 16-7.125 16-16L264 375.2C266.8 375.4 269.2 376 272 376s5.25-.625 8-.75L280.1 392c0 8.875 7.25 16 16 16c8.875 0 16-7.125 16-16L312 371.2c8.375-1.875 16.75-3.875 24-6.875V416c0 17.62 14.38 32 32 32h48C433.6 448 448 433.6 448 416V272L480 288L480 330c0 12.25 3.5 24.38 10.25 34.75l35.38 54.87C537.1 437.2 556.8 448 577.8 448C612.1 448 640 420.2 640 385.9V298.2C640 291.6 637.9 285.1 633.1 279.6zM212.8 96h118.5c17.5 0 27.13 19.75 15.88 32.75C307 175.2 289.2 176 272 176H271c-17.25 0-33.88-.375-74.12-47.25C185.6 115.8 195.2 96 212.8 96zM208.6 330.2C211.6 297.6 238.8 272 272 272s60.38 25.62 63.38 58.25C321.2 335.9 277.1 357.9 208.6 330.2zM608 385.9C608 402.5 594.5 416 577.8 416c-10.25 0-19.62-5.125-25.25-13.75l-35.38-54.87C513.8 342.2 512 336.2 512 329.1v-51.84c0-6.06-3.424-11.6-8.845-14.31l-64-31.1C428.5 226.5 416 234.2 416 246.1V416h-48v-80c0-30.88-25.5-96-96-96c-70.88 0-95.1 64.5-95.1 96L176 416H128V128c0-17.62 14.38-32 32-32h4.25C156.6 114.1 159.6 134.6 172.6 149.8C214.9 198.8 239.8 208 271 208c32.88 0 58.13-9.25 100.4-58.25c13-15.13 16-35.63 8.375-53.75H431c20.38 0 39.75 9.875 51.63 26.25l78.63 110.4C565.8 215.5 580.3 208 584 208c4.25 0 8 3.375 8 8.125v59.63L608 298.2V385.9zM568 304c-8.875 0-16 7.125-16 16s7.125 16 16 16s16-7.125 16-16S576.9 304 568 304z"/></svg>
